X: 3
T: Road to Boston
S: RJ Set 69 R-9
M: C|
Z: Transcribed to abc by Mary Lou Knack
R: reel
K: D
e2 |\
"D"f4- f2ef | g2f2 e2d2 | "A"c2d2 e2f2 | "D"d2A2 F2A2 |\
"D"f4- f2ef | g2f2 e2d2 | "A"c2d2 e2c2 | "D"d4- d2 :|
|: fg |\
"D"a4- a2^ga | "B"b2a2 =g2f2 | "Em"g4- g2fg | "A"a2g2 f2e2 |\
"D"f4- f2ef | "G"g2f2 e2d2 | "A"c2d2 e2c2 | "D"d2A2 d2 :|
% text 03/26/02

